X:1
T:Title
%%score { ( 1 2 ) | ( 3 4 ) }
L:1/8
Q:1/4=139
M:3/4
K:Bb
V:1 treble nm="Grand Piano, d" snm="Pno."
V:2 treble 
V:3 treble 
V:4 treble 
V:1
 z2 z2 B,2- | B,6- | B,4 d2- | d6- | d2 z2 z2 | z2 d4- | d6- | d6 | B6- | B6- | B2 z2 e2- | %11
 e2 z2 z2 | z6 | z2 d4- | d6- | d6 | z2 F4- | F6- | F4 B2- | B6- | B6- | B2 z2 c'2- | c'6- | %23
 c'4 z2 | z6 | z6 | B,3- [B,a] [B-c']2 | [Bb-]4 [bc']2- | [b-c']4 b2 | B2 A4- | A6- | A2 z2 d2- | %32
 d2 c'4 | d'6- | d'4 z2 | z2 z2 c2- | c6 | c2 c'4- | c'2 c'4- | c'6 | B6- | B6- | B4 z2 | c'6- | %44
 c'4 G2- | G2 z2 d2- | d2 d4- | d4 z2 | [cc']2[K:bass][K:treble] b4 | c'2 A4- | A2 z2 B2- | B4 z2 | %52
 [B,A]4 z2 | z g d'2 z A- | [GA]2 d'2 z2 | E2 z2 A2 | A6 | z2 A4 | B2 z a z c'- | %59
 [A-b-c']4 [Abc']2 | A4 B2 | b6- | b2 B2[K:bass] A2- | A2 [B,B]4 | [GB]2 b4 | z6 | z2 A2 .[B,B]2 | %67
 [A-Bf]4 [B,F-AB-]2 | [FA-B-]2 [A-B]2 [AB-]2 | B2 z2 f2- | [Cf]2- [C-B-f]2 [CB-]2 | B2 B2- [AB]2 | %72
 B6 | [Bd-]6 | d2 A2 B2- | B2 z2 B2- | B4 z2 | B2 z2 B2- | B4 B2- | B4 z2 | A6 | z2 G2- [C-G]2 | %82
 [CG]2[K:bass] z B z c- | c2- [Gc]4- | [Gc-]2 c2 F2- | [G,,F]2- [G,,-DF]2 G,,2- | G,,6- | G,,6- | %88
 G,,6- | G,,2 z2 z2 |] %90
V:2
 e2 .e2 z2 | d2- [Fd]4- | [EFd]4 z2 | z2 z2 c2- | [Dc]4- [CDc]2- | [CDc]2 z2 z2 | %6
 z z/ A/ A2- [A,A]2- | [A,A]2- [A,B,A]4 | z2 A2- [D,A]2- | [D,-A]4 D,2- | D,2 z B z2 | B6- | %12
 B4- [EB]2- | [EB]2 z2 z2 | f2- [Ff]2- [CFf]2- | [CFf]6 | z2 z2 C,2 | A2- [A,A]4- | %18
 [A,-B,-A]2 [A,B,A]2 z2 | z2 z2 D2 | D2- [A,D]2- [G,A,D-]2 | [Dd]2 d'2 z .E,, | B,2 d'2- [Fd']2- | %23
 [F-d']4 [FB]2 | c6- | c6- | c2 c4 | c4 z2 | x6 | b4- [G,,b]-[G,,Bb]- | [G,,-B-b]6 | [G,,DB]6 | %32
 d'2 z2 B,2- | B,2 F4- | F2- [Fb-]2 [B,,b-]2 | b6- | [Cb]6 | z a z d- [db]2- | [db]4- [A,db]2- | %39
 [A,db]2- [A,-d-a-b]2 [A,da]2 | z2 A2- [D,A]2- | [D,A]2- [D,B,DA]4- | %42
 [D,B,-D-A-]2 [B,DAd'-]2 [dd']2 | z d- [Gd]2 d'2- | [dd'-]2 [d-d']2 d2 | %45
 d'->[B,,-d'] [B,,d]2 z G- | [F-G]2 F2 z2 | c2- [Fc]4 | z[K:bass] .C,3[K:treble] F2- | %49
 F-[C,F-] F2 F2- | [Fa]-[F,-Fa-] [F,ab]2 z2 | A2- [DA-]2 [AB]2 | x6 | [DAd]2 z2 c'2- | c'2 z2 A2- | %55
 A2 B4 | z2 z2 F2- | [FB]2 z2 F2 | z2 A2 F,,2- | F,,6 | z F- [A,F]2 a2- | a-[Ba] B2- [AB]2- | %62
 [DA-B]2 A z/[K:bass] G,,/- G,,2 | D,-[D,D-] D2- [DA]2 | z E z A- [EA-]2 | [AB-f-]2 [Bf]4 | %66
 B4 d'2- | d'6- | d'2 z2 z2 | z2 C,4- | C,6 | C,6 | z2 [Aa]2- [D-A-a]2 | %73
 [B,D-A]2 [B,-DA-]2 [B,DA-]2 | [GA]-[D,-G-A] [D,G]-[D,E-G] E2- | [EA-]2 [DA]2 z2 | A2- [E,A]2 G2 | %77
 z G c2 z2 | D2- [Dc]2 z D | D2- [DG]4 | z2 G2- [CG]2 | A6 | z2[K:bass] F,,2 G,,2 | B6 | z2 G4- | %85
 G4 z2 | x6 | x6 | x6 | x6 |] %90
V:3
 z2 B4- | B6- | B4[K:bass] z2 | F2- [F,F]4- | [F,F]6- | [F,F]2 .F,,2 z2 | C,6- | C,6 | z6 | %9
 D4- [B,D]2- | [B,D]-[G,,B,D] .G2 [E,E]2 | E,2[K:treble] z2 d2- | [Dd]2- [B,Dd]4- | %13
 [B,Dd]2[K:bass] z2 F2- | [F,-F]2 F,4- | [F,B,]6 | z2 c4- | [C,c-]6 | [C,c]4 z2 | A2- [D,A]4- | %20
 [D,B,A]6 | z[K:treble] g3[K:bass] z2 | z2 B,2[K:treble] z2 | z2 G2 b-[Gb] | z2 z2 F,2- | F,2 C4- | %26
 C6 | z2 C,2- [C,F]2- | [C,F]4- [C,F-a]2 | [F,,F-]2 [G,,F-]2 F2- | [D,F]2- [D,FG]4- | %31
 [D,FG]4- [D,FG-][Gg-] | [E,g]2 E,4 | d6- | d4 d2- | d6- | d6 | z2[K:bass] z2 F2- | F6 | F6 | %40
 G,,6- | G,,2 z2 z2 | G,2[K:treble] d2 z2 | B6 | G2 z2 z2 | [Bd]2 z2 B2- | B4 B2- | B4 B2 | %48
 F,,2 z[K:treble] B- [C,B]2 | z2 [C,A,-]4 | [A,-c]2 [A,FAc]2[K:bass] G,,2- | G,,2 z2 D2 | %52
 .G,,2[K:treble] D2 z B- | [D,B]2 B2 z2 | [B,E-]2 [B,EB]2 .G2 | z2[K:bass] E2 E2 | z2 B2- [F,-B]2 | %57
 F,2[K:treble] F2 z2 | F2 z2 B2 | z[K:treble] B- [C-B]2 [CB]2 | C,2- [C,C]2 z2 | %61
 F,,-[F,,A] z2 D,2- | [D,B,]2 z2 B,2- | B,2 .[D,G,]2 D,2 | z2[K:treble] [GB]4 | %65
 z B,- [B,A]4[K:bass] | E,2- [E,B,]2 z2 | F,-[F,-F] [F,F]2[K:treble] z2 | %68
 B,2- [B,F]-[F,-B,F] F,2- | [F,A]2 z d' A2- | [A,-A]2 [A,-A]2 A,2 | C2 z2[K:bass] F,,2 | %72
 z[K:treble] b[K:bass] z2 B,2 | G,,2 G,,4- | [G,,B,D]4 E,2 | z2 B,2 z2 | z2 D4- | [B,D]2 z2 F,2- | %78
 F,2- [F,B,]2 F,2 | F,4- [F,B]2 | z2 C,2 z2 | [C,A,-]6 | [C,A,-]2 [A,G]2 z2 | D,4 d2- | %84
 [B-d]2 B2- [D,B]2- | [D,B-]2 [DB]2- [DGB]2- | [DGB]6- | [DG-B]2 G4- | G6 | z6 |] %90
V:4
 E,6- | E,6- | E,4[K:bass] B,,2- | B,,6- | B,,6 | z2 z2 F2- | F6- | F6 | G,,6- | G,,2 G,,4 | %10
 G,2 z2 z2 | z2[K:treble] B,4- | B,2 z2 z2 | z2[K:bass] B,,4- | B,,6- | B,,6 | F,,6- | F,,6- | %18
 F,,4 G,,2- | G,,6- | G,,6 | D,2[K:treble][K:bass] E,4- | E,4[K:treble] B,2- | B,6 | .B,,2 z2 z2 | %25
 F6- | F4 .F,,2 | F,,6 | A,6- | A,6- | A,4 B,2- | B,6 | x6 | z2 B,4- | B,4 z2 | F2- [F,-F]2 F,2- | %36
 F,6 | z2[K:bass] .F,,2 z2 | C,2- [C,A]4- | [C,A]4- [C,Ab-]2 | b6- | [Db-]2 [G,,b-]4 | %42
 b- [G,,b]2[K:treble] g- [E,g]2 | G2 B,2- [B,-Gd]2 | B,-[B,B]- [B,GB-]2 B2 | b6- | [F,b]4 z2 | %47
 F2 z2 z a | z2 F,,4[K:treble] | c6 | x4[K:bass] x2 | z2 [G,,D,]4 | z2[K:treble] z2 G,,2- | %53
 G,,2 E,4- | E,2 z2 B,2- | B,2[K:bass] E,4 | B,,6- | B,,2[K:treble] B,4 | x6 | C,6[K:treble] | %60
 .F,,2 z2 [C,C]2- | [C,C]2 G,,4- | G,,4 z2 | z2 G,,4 | .E,2[K:treble] z E B,2 | E4[K:bass] E2- | %66
 E4 B,,2- | B,,4[K:treble] c'2- | c'4 F2- | F2 F,,4- | F,,4 A2- | A4[K:bass] z2 | %72
 G,,2[K:treble][K:bass] D,4- | D,4 D,2- | D,2 z2 z2 | E,4 [D,B,]2- | [D,B,]4 E,2- | E,2 B,,4- | %78
 B,,4 B,,,2- | B,,,2 z2 z2 | F,,6- | F,,6- | F,,2 z2 z2 | G,,6- | G,,2 z2 G,,2 | B,6- | B,6- | %87
 B,2 z2 z2 | x6 | x6 |] %90

